flaticon/outdoor/hatchet-1.svg

<svg xmlns="http://www.w3.org/2000/svg" width="32" height="32" viewBox="0 0 24 24">
    <path d="M 23.339844 20.683594 C 23.726562 20.222656 23.746094 19.539062 23.351562 19.054688 L 18.425781 12.96875 C 18.042969 12.496094 17.390625 12.371094 16.863281 12.625 L 14.148438 9.601562 L 15.601562 7.988281 C 16.632812 9.109375 17.503906 10.378906 18.167969 11.753906 L 18.332031 12.089844 L 18.617188 12.054688 C 21.878906 11.632812 24.371094 8.402344 23.953125 5.140625 L 23.914062 4.855469 L 23.546875 4.78125 C 22.09375 4.496094 20.683594 4 19.371094 3.316406 L 19.78125 2.800781 C 20.007812 2.492188 20.097656 2.109375 20.035156 1.730469 C 19.976562 1.347656 19.769531 1.015625 19.457031 0.792969 L 19.1875 0.601562 C 18.546875 0.140625 17.652344 0.289062 17.199219 0.910156 L 16.683594 1.554688 L 15.925781 0.96875 C 15.753906 0.839844 15.542969 0.78125 15.328125 0.808594 C 15.113281 0.835938 14.925781 0.945312 14.792969 1.117188 L 12.402344 4.210938 C 12.269531 4.382812 12.210938 4.597656 12.242188 4.808594 C 12.269531 5.023438 12.378906 5.214844 12.550781 5.347656 L 13.210938 5.859375 L 12 7.207031 L 10.789062 5.859375 L 11.449219 5.347656 C 11.621094 5.214844 11.730469 5.023438 11.757812 4.808594 C 11.785156 4.597656 11.730469 4.382812 11.597656 4.210938 L 9.207031 1.117188 C 9.074219 0.945312 8.886719 0.835938 8.671875 0.808594 C 8.457031 0.78125 8.246094 0.839844 8.074219 0.96875 L 7.316406 1.554688 L 6.808594 0.925781 C 6.347656 0.289062 5.453125 0.140625 4.8125 0.601562 L 4.542969 0.792969 C 4.230469 1.015625 4.023438 1.347656 3.964844 1.726562 C 3.902344 2.109375 3.992188 2.488281 4.230469 2.816406 L 4.628906 3.316406 C 3.316406 4 1.90625 4.496094 0.453125 4.78125 L 0.0859375 4.851562 L 0.046875 5.140625 C -0.371094 8.402344 2.121094 11.632812 5.382812 12.054688 L 5.667969 12.089844 L 5.832031 11.753906 C 6.496094 10.378906 7.367188 9.109375 8.398438 7.988281 L 9.851562 9.601562 L 7.132812 12.625 C 6.921875 12.519531 6.683594 12.476562 6.441406 12.5 C 6.097656 12.535156 5.792969 12.703125 5.574219 12.96875 L 0.648438 19.054688 C 0.433594 19.320312 0.332031 19.65625 0.367188 19.996094 C 0.394531 20.253906 0.496094 20.492188 0.65625 20.6875 L 0.351562 21.070312 C 0.0742188 21.417969 -0.046875 21.847656 0.015625 22.289062 C 0.078125 22.726562 0.308594 23.109375 0.667969 23.367188 C 0.949219 23.570312 1.277344 23.667969 1.597656 23.667969 C 2.066406 23.667969 2.53125 23.460938 2.847656 23.066406 L 3.222656 22.597656 C 3.367188 22.636719 3.515625 22.660156 3.664062 22.660156 C 4.046875 22.660156 4.421875 22.53125 4.710938 22.269531 C 5.027344 21.980469 5.214844 21.589844 5.242188 21.167969 C 5.25 21.003906 5.34375 20.808594 5.523438 20.765625 C 5.871094 20.683594 6.171875 20.496094 6.398438 20.21875 C 6.625 19.9375 6.746094 19.605469 6.753906 19.246094 C 6.757812 19.089844 6.882812 18.9375 7.035156 18.902344 C 7.382812 18.820312 7.683594 18.628906 7.910156 18.351562 C 8.132812 18.074219 8.257812 17.738281 8.265625 17.382812 C 8.269531 17.195312 8.441406 17.066406 8.601562 17.023438 C 8.941406 16.929688 9.234375 16.730469 9.449219 16.445312 C 9.824219 15.953125 9.839844 15.265625 9.554688 14.714844 L 12 11.992188 L 14.449219 14.714844 C 14.160156 15.265625 14.175781 15.953125 14.550781 16.445312 C 14.765625 16.730469 15.058594 16.929688 15.402344 17.023438 C 15.558594 17.066406 15.730469 17.195312 15.734375 17.382812 C 15.746094 17.738281 15.867188 18.074219 16.09375 18.351562 C 16.316406 18.628906 16.617188 18.820312 16.964844 18.902344 C 17.121094 18.9375 17.242188 19.089844 17.246094 19.246094 C 17.253906 19.605469 17.378906 19.9375 17.601562 20.214844 C 17.828125 20.492188 18.128906 20.683594 18.476562 20.765625 C 18.65625 20.808594 18.75 21.003906 18.761719 21.167969 C 18.785156 21.589844 18.972656 21.980469 19.289062 22.265625 C 19.578125 22.53125 19.953125 22.660156 20.335938 22.660156 C 20.484375 22.660156 20.632812 22.632812 20.777344 22.597656 L 21.152344 23.066406 C 21.46875 23.460938 21.933594 23.667969 22.402344 23.667969 C 22.726562 23.667969 23.050781 23.570312 23.332031 23.367188 C 23.691406 23.109375 23.925781 22.726562 23.984375 22.285156 C 24.046875 21.847656 23.925781 21.414062 23.648438 21.070312 Z M 18.796875 11.214844 C 18.574219 10.777344 18.328125 10.347656 18.070312 9.929688 C 19.140625 9.660156 20.074219 9.054688 20.742188 8.179688 C 21.40625 7.308594 21.75 6.25 21.738281 5.144531 C 22.214844 5.292969 22.699219 5.421875 23.1875 5.527344 C 23.371094 8.171875 21.402344 10.726562 18.796875 11.214844 Z M 17.835938 1.394531 C 18.042969 1.113281 18.441406 1.046875 18.722656 1.25 L 18.988281 1.441406 C 19.128906 1.542969 19.21875 1.6875 19.246094 1.859375 C 19.273438 2.027344 19.234375 2.195312 19.144531 2.316406 L 18.664062 2.921875 C 18.46875 2.804688 18.277344 2.6875 18.089844 2.566406 C 18.035156 2.53125 17.980469 2.496094 17.925781 2.460938 C 17.792969 2.375 17.667969 2.28125 17.539062 2.191406 C 17.46875 2.140625 17.394531 2.089844 17.324219 2.035156 Z M 15.4375 1.605469 L 16.5625 2.472656 C 16.761719 2.625 16.964844 2.773438 17.175781 2.917969 C 17.265625 2.980469 17.359375 3.042969 17.449219 3.105469 C 17.546875 3.171875 17.648438 3.234375 17.75 3.296875 C 17.988281 3.449219 18.230469 3.597656 18.476562 3.734375 C 18.507812 3.753906 18.535156 3.769531 18.566406 3.789062 L 18.777344 3.90625 C 19.46875 4.277344 20.1875 4.597656 20.921875 4.871094 C 20.945312 5.136719 20.941406 5.402344 20.910156 5.664062 L 20.035156 5.011719 C 19.859375 4.878906 19.605469 4.917969 19.476562 5.09375 C 19.34375 5.269531 19.378906 5.523438 19.558594 5.652344 L 20.722656 6.523438 C 20.644531 6.757812 20.542969 6.984375 20.421875 7.203125 L 18.296875 5.390625 C 18.128906 5.25 17.875 5.269531 17.730469 5.4375 C 17.589844 5.605469 17.609375 5.855469 17.777344 6 L 19.964844 7.863281 C 19.734375 8.132812 19.472656 8.371094 19.183594 8.566406 L 18.1875 7.457031 C 18.042969 7.289062 17.789062 7.277344 17.625 7.421875 C 17.460938 7.570312 17.445312 7.824219 17.59375 7.988281 L 18.460938 8.960938 C 18.1875 9.074219 17.898438 9.15625 17.601562 9.210938 C 17.15625 8.570312 16.667969 7.960938 16.140625 7.390625 L 16.140625 7.386719 L 15.878906 7.121094 C 15.855469 7.097656 15.832031 7.074219 15.808594 7.050781 C 15.636719 6.875 15.460938 6.707031 15.28125 6.539062 C 15.183594 6.445312 15.085938 6.355469 14.984375 6.265625 C 14.90625 6.199219 14.828125 6.128906 14.75 6.0625 C 14.558594 5.898438 14.367188 5.738281 14.171875 5.589844 C 14.167969 5.589844 14.167969 5.585938 14.164062 5.585938 L 13.035156 4.703125 Z M 5.335938 2.921875 L 4.863281 2.332031 C 4.765625 2.195312 4.726562 2.027344 4.753906 1.855469 C 4.78125 1.6875 4.871094 1.542969 5.011719 1.441406 L 5.277344 1.25 C 5.386719 1.171875 5.515625 1.132812 5.644531 1.132812 C 5.84375 1.132812 6.042969 1.226562 6.175781 1.410156 L 6.675781 2.035156 C 6.601562 2.089844 6.527344 2.144531 6.449219 2.199219 C 6.328125 2.285156 6.207031 2.375 6.078125 2.457031 C 6.019531 2.496094 5.960938 2.535156 5.898438 2.570312 C 5.714844 2.691406 5.53125 2.808594 5.335938 2.921875 Z M 5.203125 11.214844 C 2.597656 10.726562 0.625 8.171875 0.8125 5.523438 C 1.300781 5.421875 1.785156 5.292969 2.261719 5.144531 C 2.238281 7.421875 3.734375 9.375 5.929688 9.929688 C 5.667969 10.347656 5.425781 10.777344 5.203125 11.214844 Z M 6.398438 9.210938 C 6.097656 9.15625 5.8125 9.070312 5.542969 8.957031 L 6.40625 7.988281 C 6.554688 7.824219 6.539062 7.570312 6.375 7.421875 C 6.210938 7.277344 5.957031 7.289062 5.808594 7.453125 L 4.820312 8.566406 C 4.527344 8.367188 4.265625 8.128906 4.039062 7.863281 L 6.222656 6 C 6.390625 5.855469 6.410156 5.605469 6.265625 5.4375 C 6.125 5.269531 5.871094 5.25 5.703125 5.390625 L 3.578125 7.203125 C 3.457031 6.984375 3.355469 6.757812 3.277344 6.519531 L 4.441406 5.652344 C 4.617188 5.523438 4.65625 5.269531 4.523438 5.09375 C 4.390625 4.917969 4.140625 4.878906 3.964844 5.011719 L 3.089844 5.664062 C 3.058594 5.402344 3.054688 5.140625 3.078125 4.871094 C 3.816406 4.597656 4.539062 4.273438 5.234375 3.898438 L 5.433594 3.789062 C 5.464844 3.769531 5.492188 3.753906 5.519531 3.738281 C 5.761719 3.601562 6.003906 3.457031 6.238281 3.304688 C 6.34375 3.238281 6.453125 3.171875 6.554688 3.101562 C 6.644531 3.042969 6.730469 2.984375 6.816406 2.921875 C 7.03125 2.777344 7.238281 2.625 7.433594 2.472656 L 7.449219 2.464844 L 8.574219 1.605469 L 10.960938 4.714844 L 10.253906 5.261719 L 9.894531 5.539062 L 9.835938 5.585938 C 9.832031 5.585938 9.832031 5.589844 9.828125 5.589844 C 9.636719 5.738281 9.441406 5.898438 9.25 6.0625 C 9.171875 6.128906 9.09375 6.199219 9.015625 6.265625 C 8.917969 6.351562 8.820312 6.445312 8.722656 6.535156 C 8.539062 6.703125 8.363281 6.875 8.1875 7.054688 C 8.167969 7.074219 8.144531 7.097656 8.121094 7.121094 L 7.859375 7.386719 L 7.863281 7.390625 C 7.332031 7.960938 6.84375 8.570312 6.398438 9.210938 Z M 8.957031 7.414062 C 9.152344 7.222656 9.347656 7.039062 9.542969 6.863281 C 9.546875 6.863281 9.550781 6.859375 9.554688 6.855469 C 9.664062 6.757812 9.777344 6.667969 9.890625 6.574219 C 9.976562 6.5 10.066406 6.425781 10.15625 6.355469 L 11.460938 7.804688 L 10.386719 9.003906 Z M 1.132812 22.71875 C 0.953125 22.589844 0.839844 22.398438 0.808594 22.179688 C 0.777344 21.960938 0.835938 21.742188 0.976562 21.570312 L 1.265625 21.207031 L 2.4375 22.160156 L 2.507812 22.214844 L 2.222656 22.566406 C 1.957031 22.898438 1.480469 22.964844 1.132812 22.71875 Z M 8.8125 15.960938 C 8.703125 16.105469 8.558594 16.203125 8.386719 16.25 C 7.847656 16.398438 7.476562 16.847656 7.464844 17.363281 C 7.460938 17.542969 7.398438 17.710938 7.285156 17.847656 C 7.175781 17.988281 7.023438 18.082031 6.851562 18.125 C 6.34375 18.242188 5.964844 18.710938 5.953125 19.230469 C 5.949219 19.40625 5.886719 19.574219 5.777344 19.714844 C 5.664062 19.851562 5.511719 19.949219 5.339844 19.988281 C 4.835938 20.109375 4.476562 20.5625 4.441406 21.125 C 4.429688 21.335938 4.335938 21.53125 4.175781 21.675781 C 3.960938 21.871094 3.644531 21.914062 3.355469 21.808594 L 3.265625 21.761719 C 3.230469 21.746094 3.203125 21.730469 3.175781 21.714844 C 3.144531 21.695312 3.117188 21.675781 3.085938 21.65625 L 1.339844 20.242188 C 1.238281 20.160156 1.175781 20.042969 1.164062 19.914062 C 1.148438 19.785156 1.1875 19.660156 1.269531 19.558594 L 6.195312 13.472656 C 6.292969 13.355469 6.433594 13.292969 6.574219 13.292969 C 6.683594 13.292969 6.789062 13.328125 6.878906 13.402344 L 7.746094 14.101562 L 8.625 14.816406 C 8.652344 14.835938 8.671875 14.859375 8.691406 14.882812 C 8.707031 14.898438 8.726562 14.914062 8.742188 14.929688 L 8.742188 14.933594 C 8.984375 15.226562 9.027344 15.679688 8.8125 15.960938 Z M 9.023438 14.105469 L 7.78125 13.101562 L 12.050781 8.347656 L 12.539062 7.804688 L 13.84375 6.351562 C 13.933594 6.425781 14.023438 6.5 14.109375 6.574219 C 14.222656 6.667969 14.335938 6.757812 14.445312 6.855469 C 14.453125 6.859375 14.457031 6.867188 14.464844 6.871094 C 14.660156 7.046875 14.851562 7.226562 15.042969 7.414062 L 13.613281 9.003906 L 11.460938 11.394531 Z M 13.613281 10.199219 L 16.21875 13.101562 L 14.976562 14.105469 L 12.539062 11.394531 Z M 19.558594 21.125 C 19.523438 20.5625 19.164062 20.109375 18.660156 19.988281 C 18.488281 19.949219 18.335938 19.851562 18.222656 19.714844 C 18.113281 19.574219 18.050781 19.40625 18.046875 19.230469 C 18.035156 18.710938 17.65625 18.242188 17.148438 18.121094 C 16.976562 18.082031 16.824219 17.988281 16.714844 17.847656 C 16.601562 17.707031 16.539062 17.542969 16.535156 17.363281 C 16.523438 16.847656 16.152344 16.398438 15.613281 16.25 C 15.441406 16.203125 15.292969 16.105469 15.1875 15.960938 C 14.972656 15.679688 15.011719 15.230469 15.253906 14.933594 L 15.257812 14.929688 C 15.285156 14.898438 15.316406 14.871094 15.34375 14.84375 C 15.355469 14.835938 15.363281 14.824219 15.375 14.816406 L 15.371094 14.816406 L 17.121094 13.402344 C 17.328125 13.234375 17.632812 13.265625 17.800781 13.472656 L 22.730469 19.558594 C 22.8125 19.660156 22.847656 19.785156 22.835938 19.914062 C 22.820312 20.042969 22.757812 20.160156 22.660156 20.238281 L 21.40625 21.253906 L 20.910156 21.65625 C 20.882812 21.675781 20.855469 21.695312 20.824219 21.714844 C 20.796875 21.730469 20.769531 21.746094 20.734375 21.761719 L 20.640625 21.808594 C 20.355469 21.914062 20.039062 21.871094 19.824219 21.675781 C 19.664062 21.53125 19.570312 21.335938 19.558594 21.125 Z M 23.191406 22.179688 C 23.160156 22.398438 23.046875 22.589844 22.867188 22.71875 C 22.519531 22.964844 22.042969 22.898438 21.777344 22.566406 L 21.492188 22.214844 L 22.078125 21.742188 L 22.734375 21.207031 L 23.023438 21.570312 C 23.164062 21.742188 23.222656 21.960938 23.191406 22.179688 Z M 23.191406 22.179688"/>
</svg>

<svg xmlns="http://www.w3.org/2000/svg" width="32" height="32" viewBox="0 0 24 24">
    <path d="M23.34 20.684c.387-.461.406-1.145.012-1.63l-4.926-6.085a1.29 1.29 0 0 0-1.563-.344l-2.715-3.023 1.454-1.614a15.59 15.59 0 0 1 2.566 3.766l.164.336.285-.035c3.262-.422 5.754-3.653 5.336-6.914l-.039-.286-.367-.074a15.528 15.528 0 0 1-4.176-1.465l.41-.515c.227-.309.317-.692.254-1.07a1.403 1.403 0 0 0-.578-.938l-.27-.191A1.435 1.435 0 0 0 17.2.91l-.515.645-.758-.586a.818.818 0 0 0-.598-.16.797.797 0 0 0-.535.308l-2.39 3.094a.789.789 0 0 0-.16.598.805.805 0 0 0 .308.539l.66.511L12 7.207l-1.21-1.348.66-.511a.805.805 0 0 0 .308-.54.805.805 0 0 0-.16-.597L9.207 1.117A.797.797 0 0 0 8.672.81a.818.818 0 0 0-.598.16l-.758.586-.507-.63A1.434 1.434 0 0 0 4.812.603l-.269.191c-.313.223-.52.555-.578.934-.063.382.027.761.265 1.09l.399.5A15.528 15.528 0 0 1 .453 4.78l-.367.07-.04.29c-.417 3.261 2.075 6.492 5.337 6.914l.285.035.164-.336a15.59 15.59 0 0 1 2.566-3.766l1.454 1.614-2.72 3.023a1.285 1.285 0 0 0-1.559.344L.65 19.055a1.283 1.283 0 0 0 .008 1.633l-.304.382a1.577 1.577 0 0 0-.336 1.22c.062.437.293.82.652 1.077.281.203.61.301.93.301a1.6 1.6 0 0 0 1.25-.602l.375-.468c.144.039.293.062.441.062a1.55 1.55 0 0 0 1.047-.39c.316-.29.504-.68.531-1.102.008-.164.102-.36.281-.402a1.587 1.587 0 0 0 1.23-1.52.38.38 0 0 1 .282-.344 1.596 1.596 0 0 0 1.23-1.52c.005-.187.176-.316.337-.359.34-.093.632-.293.847-.578.375-.492.39-1.18.106-1.73L12 11.992l2.45 2.723c-.29.55-.274 1.238.1 1.73.216.285.509.485.852.578.157.043.328.172.332.36a1.6 1.6 0 0 0 .36.969c.222.277.523.468.87.55a.374.374 0 0 1 .282.344c.008.36.133.692.356.969.226.277.527.469.875.55.18.044.273.239.285.403.023.422.21.812.527 1.098.29.265.664.394 1.047.394.148 0 .297-.027.441-.062l.375.468a1.6 1.6 0 0 0 1.25.602c.325 0 .649-.098.93-.3.36-.259.594-.641.652-1.083a1.568 1.568 0 0 0-.336-1.215zm-4.543-9.47a18.072 18.072 0 0 0-.727-1.284 4.814 4.814 0 0 0 2.672-1.75 4.89 4.89 0 0 0 .996-3.035c.477.148.961.277 1.45.382.183 2.645-1.786 5.2-4.391 5.688zm-.961-9.82a.641.641 0 0 1 .887-.144l.265.191c.14.102.23.246.258.418a.61.61 0 0 1-.101.457l-.48.606a20.452 20.452 0 0 1-.575-.356l-.164-.105c-.133-.086-.258-.18-.387-.27-.07-.05-.144-.101-.215-.156zm-2.398.211l1.124.868c.2.152.403.3.614.445l.273.187c.098.067.2.13.301.192.238.152.48.3.727.437.03.02.058.036.09.055l.21.117c.692.371 1.41.692 2.145.965.023.266.02.531-.012.793l-.875-.652a.399.399 0 0 0-.558.082.395.395 0 0 0 .082.558l1.164.871c-.078.235-.18.461-.301.68l-2.125-1.812a.406.406 0 0 0-.567.046.401.401 0 0 0 .047.563l2.188 1.863a3.92 3.92 0 0 1-.781.703l-.997-1.109a.397.397 0 0 0-.562-.035.401.401 0 0 0-.031.566l.867.973a4.263 4.263 0 0 1-.86.25c-.445-.64-.933-1.25-1.46-1.82v-.004l-.262-.266-.07-.07a16.294 16.294 0 0 0-.528-.512 9.838 9.838 0 0 0-.297-.273l-.234-.204a12.76 12.76 0 0 0-.578-.472c-.004 0-.004-.004-.008-.004l-1.129-.883zM5.335 2.922l-.473-.59a.639.639 0 0 1 .149-.89l.265-.192a.631.631 0 0 1 .368-.117c.199 0 .398.094.53.277l.5.625c-.073.055-.148.11-.226.164-.12.086-.242.176-.37.258-.06.04-.118.078-.18.113-.184.121-.368.239-.563.352zm-.133 8.293C2.598 10.727.625 8.172.813 5.523c.488-.101.972-.23 1.449-.378-.024 2.277 1.472 4.23 3.668 4.785-.262.418-.504.847-.727 1.285zM6.398 9.21c-.3-.055-.585-.14-.855-.254l.863-.969a.401.401 0 0 0-.597-.535L4.82 8.566a3.944 3.944 0 0 1-.78-.703L6.222 6a.4.4 0 0 0-.52-.61L3.578 7.204a3.948 3.948 0 0 1-.3-.683l1.163-.868a.399.399 0 1 0-.476-.64l-.875.652a3.836 3.836 0 0 1-.012-.793c.738-.273 1.461-.598 2.156-.973l.2-.109c.03-.02.058-.035.086-.05.242-.137.484-.282.718-.434.106-.067.215-.133.317-.203.09-.059.175-.118.261-.18.215-.145.422-.297.618-.45l.015-.007 1.125-.86 2.387 3.11-.707.547-.36.277-.058.047c-.004 0-.004.004-.008.004-.191.148-.387.308-.578.473-.078.066-.156.136-.234.203-.098.086-.196.18-.293.27-.184.167-.36.339-.536.519l-.066.066-.262.266.004.004a16.41 16.41 0 0 0-1.465 1.82zm2.559-1.797c.195-.191.39-.375.586-.55.004 0 .008-.005.012-.009.11-.097.222-.187.336-.28.086-.075.175-.15.265-.22l1.305 1.45-1.074 1.199zM1.133 22.72a.793.793 0 0 1-.324-.54.781.781 0 0 1 .168-.609l.289-.363 1.171.953.07.055-.284.351a.8.8 0 0 1-1.09.153zm7.68-6.758a.783.783 0 0 1-.426.289c-.54.148-.91.598-.922 1.113a.78.78 0 0 1-.18.485.783.783 0 0 1-.433.277 1.179 1.179 0 0 0-.899 1.105.817.817 0 0 1-.176.485.8.8 0 0 1-.437.273c-.504.121-.863.575-.899 1.137a.797.797 0 0 1-.265.55c-.215.196-.531.24-.82.134l-.09-.047c-.036-.016-.063-.032-.09-.047-.031-.02-.059-.04-.09-.059L1.34 20.242a.475.475 0 0 1-.176-.328.471.471 0 0 1 .106-.355l4.925-6.086a.495.495 0 0 1 .38-.18c.109 0 .214.035.304.11l.867.699.879.714c.027.02.047.043.066.067.016.015.036.031.051.047v.004c.242.293.285.746.07 1.027zm.21-1.856l-1.242-1.003 4.27-4.754.488-.543 1.305-1.453c.09.074.18.148.265.222.114.094.227.184.336.281.008.004.012.012.02.016.195.176.387.356.578.543l-1.43 1.59-2.152 2.39zm4.59-3.906l2.606 2.903-1.242 1.003-2.438-2.71zm5.946 10.926c-.036-.563-.395-1.016-.899-1.137a.8.8 0 0 1-.437-.273.817.817 0 0 1-.176-.485 1.187 1.187 0 0 0-.899-1.109.757.757 0 0 1-.433-.273.788.788 0 0 1-.18-.485c-.012-.515-.383-.965-.922-1.113a.77.77 0 0 1-.425-.29c-.215-.28-.176-.73.066-1.026l.004-.004c.027-.032.058-.059.086-.086.011-.008.02-.02.031-.028h-.004l1.75-1.414a.483.483 0 0 1 .68.07l4.93 6.087a.488.488 0 0 1 .105.355.489.489 0 0 1-.176.324l-1.254 1.016-.496.402c-.027.02-.055.04-.086.059-.027.015-.054.031-.09.047l-.093.047c-.286.105-.602.062-.817-.133a.797.797 0 0 1-.265-.551zm3.632 1.055a.793.793 0 0 1-.324.539.8.8 0 0 1-1.09-.153l-.285-.351.586-.473.656-.535.29.363c.14.172.199.39.167.61zm0 0"/>
</svg>
